!!!COM: Corelli, Arcangelo
!!!OTL: 
!!!ONM: Opus 5, No. 1
!!!OMV: 2
!!!CDT: 1653/2/17/-1713/1/8/
!!!OCY: Italia
**kern	**kern
*clefC	*clefG
*k[f#c#]	*k[f#c#]
*D:	*D:
*M4/4	*M4/4
=1	=1
4D	16dd
.	16d
.	16f#
.	16a
4d	16dd
.	16ff#
.	16aa
.	16ff#
4c#	16ee
.	16aa
.	16cc#
.	16ee
4C#	16a
.	16cc#
.	16ee
.	16a
=2	=2
4BB	16dd
.	16ff#
.	16b
.	16dd
4E	16g#
.	16b
.	16ee
.	16b
4A	16cc#
.	16a
.	16cc#
.	16ee
4AA	16aa
.	16ee
.	16cc#
.	16a
=3	=3
4F#	16dd
.	16d
.	16f#
.	16a
4D	16dd
.	16ff#
.	16dd
.	16a
4G	16b
.	16g
.	16b
.	16dd
4GG	16gg
.	16bb
.	16b
.	16dd
=4	=4
4AA	16cc#
.	16a
.	16dd
.	16f#
4A	16e
.	16dd
.	16cc#
.	16e
4D	16d
.	16dd
.	16ff#
.	16aa
4d	16ddd
.	16aa
.	16ff#
.	16dd
=5	=5
4c#	16ee
.	16a
.	16cc#
.	16ee
4C#	16aa
.	16ee
.	16cc#
.	16a
4BB	16dd
.	16d
.	16f#
.	16a
4E	16dd
.	16b
.	16g#
.	16b
=6	=6
4A	16cc#
.	16ee
.	16dd
.	16ee
4AA	16cc#
.	16ee
.	16dd
.	16ee
4GG#	16b
.	16ee
.	16dd
.	16ee
4G#	16b
.	16ee
.	16dd
.	16ee
=7	=7
4F#	16a
.	16aa
.	16gg#
.	16aa
4C#	16ee
.	16aa
.	16gg#
.	16aa
4D	16ff#
.	16aa
.	16gg#
.	16aa
4E	16b
.	16aa
.	16gg#
.	16aa
=8	=8
4AA	16a
.	16A
.	16c#
.	16e
4A	16a
.	16cc#
.	16b
.	16a
4G#	16b
.	16e
.	16g#
.	16b
4GG#	16ee
.	16gg#
.	16ff#
.	16ee
=9	=9
4FF#	16aa
.	16a
.	16cc#
.	16ee
4F#	16aa
.	16ccc#
.	16bb
.	16aa
4E	16eee
.	16ee
.	16gg#
.	16ff#
4e	16ee
.	16gg#
.	16ff#
.	16ee
=10	=10
4d#	16ff#
.	16bb
.	16aa
.	16bb
4D#	16ff#
.	16bb
.	16aa
.	16bb
4C#	16ee
.	16aa
.	16gg#
.	16aa
4c#	16ee
.	16aa
.	16gg#
.	16aa
=11	=11
4B	16dd#
.	16b
.	16cc#
.	16dd#
4G#	16ee
.	16b
.	16ee
.	16b
4A	16cc#
.	16dd#
.	16ee
.	16g#
4B	16f#
.	16ee
.	16dd#
.	16f#
=12	=12
4E	16e
.	16ee
.	16dd#
.	16ee
4r	16b
.	16ee
.	16dd#
.	16ee
4E	16g#
.	16ee
.	16dd#
.	16ee
4G#	16e
.	16ee
.	16dd#
.	16ee
=13	=13
4A	16cc#
.	16aa
.	16gg#
.	16aa
4r	16ee
.	16aa
.	16gg#
.	16aa
4AA	16cc#
.	16aa
.	16gg#
.	16aa
4C#	16a
.	16aa
.	16gg#
.	16aa
=14	=14
4D	16ff#
.	16dd
.	16cc#
.	16dd
4r	16a
.	16dd
.	16cc#
.	16dd
4D	16f#
.	16dd
.	16cc#
.	16dd
4F#	16d
.	16dd
.	16cc#
.	16dd
=15	=15
4G	16b
.	16ee
.	16dd
.	16ee
4r	16b
.	16ee
.	16dd
.	16ee
4E	16g#
.	16ee
.	16dd
.	16ee
4G#	16e
.	16ee
.	16dd
.	16ee
=16	=16
4A	16cc#
.	16ff#
.	16ee
.	16ff#
4r	16cc#
.	16ff#
.	16ee
.	16ff#
4F#	16a#
.	16ff#
.	16ee
.	16ff#
4A#	16f#
.	16ff#
.	16ee
.	16ff#
=17	=17
4B	16dd
.	16gg
.	16ff#
.	16gg
4BB	16dd
.	16gg
.	16ff#
.	16gg
4AA	16cc#
.	16ff#
.	16ee
.	16ff#
4A	16cc#
.	16ff#
.	16ee
.	16ff#
=18	=18
4G	16b
.	16bb
.	16aa#
.	16bb
4GG	16ee
.	16gg
.	16ff#
.	16gg
4FF#	16a#
.	16ff#
.	16ee
.	16ff#
4D	16b
.	16bb
.	16aa#
.	16bb
=19	=19
4E	16gg#
.	16bb
.	16aa#
.	16bb
4F#	16cc#
.	16bb
.	16aa#
.	16bb
4BB	16b
.	16f#
.	16e
.	16f#
4r	16c#
.	16f#
.	16e
.	16f#
=20	=20
4B	16d#
.	16b
.	16a
.	16b
4D#	16f#
.	16b
.	16a
.	16b
4E	16g#
.	16ee
.	16dd
.	16ee
4r	16b
.	16ee
.	16dd
.	16ee
=21	=21
4A	16cc#
.	16aa
.	16gg
.	16aa
4C#	16ee
.	16aa
.	16gg
.	16aa
4D	16ff#
.	16ddd
.	16ccc#
.	16ddd
4r	16aa
.	16ddd
.	16ccc#
.	16ddd
=22	=22
4GG	16bb
.	16ccc#
.	16ddd
.	16ff#
4AA	16ee
.	16ddd
.	16ccc#
.	16ee
4D	16ff#
.	16aa
.	16ddd
.	16aa
4d	16dd
.	16ff#
.	16bb
.	16ff#
=23	=23
4c#	16ee
.	16aa
.	16ccc#
.	16aa
4C#	16ee
.	16aa
.	16ccc#
.	16aa
4BB	16dd
.	16gg
.	16ff#
.	16gg
4B	16dd
.	16gg
.	16ff#
.	16gg
=24	=24
4A	16cc#
.	16ff#
.	16ee
.	16ff#
4AA	16cc#
.	16ff#
.	16ee
.	16ff#
4GG	16b
.	16ee
.	16dd
.	16ee
4G	16b
.	16ee
.	16dd
.	16ee
=25	=25
4F#	16a
.	16dd
.	16cc#
.	16dd
4FF#	16a
.	16dd
.	16cc#
.	16dd
4GG	16b
.	16cc#
.	16dd
.	16f#
4AA	16e
.	16dd
.	16cc#
.	16e
=26	=26
4D	16f#
.	16a
.	16dd
.	16a
4d	16f#
.	16a
.	16dd
.	16a
4c#	16e
.	16a
.	16cc#
.	16a
4C#	16e
.	16a
.	16cc#
.	16a
=27	=27
4BB	16d
.	16g
.	16f#
.	16g
4B	16d
.	16g
.	16f#
.	16g
4A	16c#
.	16f#
.	16e
.	16f#
4AA	16c#
.	16f#
.	16e
.	16f#
=28	=28
4GG	16B
.	16e
.	16d
.	16e
4G	16B
.	16e
.	16d
.	16e
4F#	16A
.	16dd
.	16cc#
.	16dd
4FF#	16a
.	16dd
.	16cc#
.	16dd
=29	=29
4GG	16b
.	16dd
.	16cc#
.	16dd
4AA	16e
.	16dd
.	16cc#
.	16dd
4D	16d
.	16dd
.	16cc#
.	16dd
4FF#	16a
.	16dd
.	16cc#
.	16dd
=30	=30
4GG	16b
.	16dd
.	16cc#
.	16dd
4AA	16e
.	16dd
.	16cc#
.	16dd
2D	2d
==	==
*-	*-
!!!RWG: This file only contains pitch and duration data.
!!!RWG: Transposing instruments are not transposed.
!!!RWG: Durations of rests and tied notes may be interpreted.
!!!RWG: Key is interpreted using the Humdrum key tool.
!!!SCA: 
!!!YOR: 
!!!AGN: violin
!!!AFT: stage1
!!!ENC: F. Bennion
!!!END: 1997/04/15
!!!AST: baroque
!!!YEC: Copyright 1994, Center for Computer Assisted Research in the Humanities
!!!YEM: Rights to all derivative electronic formats reserved.
!!!YEM: Refer to licensing agreement for further details.
!!!YEN: United States of America
!!!EED: W.B. Hewlett
!!!KEY: 2944470432
!!!EMD: Converted from MuseData to Humdrum Aug 9, 1999, by Bret Aarden using muse2kern.
!!!VTS: 1997027125
